X:18777
T:Will You Come Down to Limerick?
R:slip jig
H:See also #22
D:Tommy Keane: The Piper's Apron
Z:id:hn-slipjig-21
M:9/8
K:G
d|:cAG GAG ~G2d|cAG ~G2A cAd|cAG GAG ~G2A|1 cAA fed cAd:|2 cAA fed cAG||
|:def gaf g2f|d2g gfg abc'|bag agf gfd|1 cAA fed cAG:|2 cAA fed cAd||


